X: 20241
T: Joe Derrane's
R: jig
M: 6/8
K: Bminor
|:A|BdB BAF|AFE EDB,|DFA def|afe dB^A|
B/c/dB BAF|AFE E2 F|DF/G/A dce|dB^A B2:|
|:d|e^de f=dB|AF/G/A DFA|dd/e/f a2 a|baf a^ga|
baf a^ga|baf edB|dd/e/f afe|dB^A B2:|

